!!!COM:	Bach, Johann Sebastian
!!!CDT:	1685/02/21/-1750/07/28/
!!!OTL@@DE:	Durch Adams Fall ist ganz verderbt
!!!SCT:	BWV 18/5
!!!PC#:	100
!!!AGN:	chorale
**harm	**kern	**kern	**kern	**kern
*	*ICvox	*ICvox	*ICvox	*ICvox
*	*Ibass	*Itenor	*Ialto	*Isoprn
*	*I"Bass	*I"Tenor	*I"Alto	*I"Soprano
*>[A,A,B]	*>[A,A,B]	*>[A,A,B]	*>[A,A,B]	*>[A,A,B]
*>norep[A,B}	*>norep[A,B]	*>norep[A,B]	*>norep[A,B]	*>norep[A,B]
*>A	*>A	*>A	*>A	*>A
*	*	*oclefC4	*oclefC3	*oclefC1
*	*clefF4	*clefGv2	*clefG2	*clefG2
*k[b-e-]	*k[b-e-]	*k[b-e-]	*k[b-e-]	*k[b-e-]
*g:	*g:	*g:	*g:	*g:
*M4/4	*M4/4	*M4/4	*M4/4	*M4/4
*met(c)	*met(c)	*met(c)	*met(c)	*met(c)
*MM100	*MM100	*MM100	*MM100	*MM100
c:V6	4BB	4G	4d	4g
=1	=1	=1	=1	=1
i	4C	4c	4e-	4g
i6	4E-	4c	4e-	4g
V65/V	4AA	4c	4e-	4f
V6	4BB	4G	4d	4g
=2	=2	=2	=2	=2
i	4C	4G	4c	4e-
V7	4GG	4F	4B	4d
i;	4C;	4E-;	4c;	4c;
i	4C	4c	4e-	4g
=3	=3	=3	=3	=3
V	4G	4B	4d	4b
i6	4E-	4G	4c	4cc
i	4C	4c	4e-	4g
g:iio	4AA	4c	4e-	4a
=4	=4	=4	=4	=4
V(64)	4D	4G	4d	4b-
V7	4D	4F#	4c	4a
I;	4GG;	4G;	4B;	4g;
=:|!	=:|!	=:|!	=:|!	=:|!
*>B	*>B	*>B	*>B	*>B
i	4G	4d	4g	4b-X
=5	=5	=5	=5	=5
E-:V6	4D	4B-	4f	4b-
V7	4BB-	4F	4d	4a-
I	4E-	4G	4B-	4g
vi	4C	4G	4c	4e-
=6	=6	=6	=6	=6
I6	4GG	4B-	4e-	4g
V7	4BB-	4A-	4d	4f
I;	4EE-;	4G;	4e-;	4e-;
I	4E-	4G	4B-	4g
=7	=7	=7	=7	=7
c:V65	4BB	4F	4d	4g
i	4C	4E-	4c	4g
iv6	4AA-	4F	4c	4f
iv7	4FF	4A-X	4c	4e-
=8	=8	=8	=8	=8
V7	2GG	2F	2B	2d
i;	4C;	4E-;	4c;	4c;
V6	4BB	4G	4d	4g
=9	=9	=9	=9	=9
i	4C	4c	4e-	4g
E-:viio6	4F	4A-	4d	4f
I	4E-	4B-	4e-	4g
B-:viio6	4C	4c	4e-	4aX
=10	=10	=10	=10	=10
I	4BB-	4F	4d	4b-
F:V7	4C	4E	4B-	4g
I;	4FF;	4F;	4A;	4f;
I	4F	4A	4f	4cc
=11	=11	=11	=11	=11
IV	4BB-	4B-	4f	4dd
g:iv	4C	4G	4e-	4cc
iv6	4E-	4G	4c	4g
i6	4BB-	4G	4d	4b-
=12	=12	=12	=12	=12
V7	4D	4F#	4c	4a
VI	4E-	4G	4B-	4g
ii%65	4C	4G	4e-	4a
V7	4D	4F#	4c	4a
=13	=13	=13	=13	=13
I;	2.GG;	2.G;	2.B;	2.g;
==	==	==	==	==
*-	*-	*-	*-	*-
!!!YOR1: 371 vierstimmige Choralges&auml;nge von Johann Sebastian Bach, 
!!!YOR2: 4th ed. by Alfred D&ouml;rffel (Leipzig: Breitkopf und H&auml;rtel, 
!!!YOR2: c.1875). 178 pp. Plate "V.A.10".  reprint: J.S. Bach, 371 Four-Part 
!!!YOR4: Chorales (New York: Associated Music Publishers, Inc., c.1940).
!!!SMS: B&H, 4th ed, Alfred D&ouml;rffel, c.1875, plate V.A.10
!!!EED:  Craig Stuart Sapp
!!!EEV:  2009/05/22
